icon-themes/sifr_svg/cmd/sc_basicshapes.circle-pie.svg

<svg viewBox="0 0 16 16" xmlns="http://www.w3.org/2000/svg"><g fill="#555753"><path d="m7 3.1a5 5 0 0 0 -4 4.9 5 5 0 0 0 5 5 5 5 0 0 0 4.9-4h-5.9z" opacity=".35"/><path d="m8 1a7 7 0 0 0 -7 7 7 7 0 0 0 7 7 7 7 0 0 0 7-7 7 7 0 0 0 -.1-1h-.9-5v-3.9-1.1-.921875a7 7 0 0 0 -1-.078125zm-1 2.1v5.9h2 3.9a5 5 0 0 1 -4.9 4 5 5 0 0 1 -5-5 5 5 0 0 1 4-4.9z"/></g></svg>

<svg xmlns="http://www.w3.org/2000/svg" viewBox="0 0 16 16">
  <path
     style="opacity:0.35;fill:#555753"
     d="M 7 3.1 A 5 5 0 0 0 3 8 A 5 5 0 0 0 8 13 A 5 5 0 0 0 12.9 9 L 7 9 L 7 3.1 z "
     />
  <path
     style="fill:#555753"
     d="M 8 1 A 7 7 0 0 0 1 8 A 7 7 0 0 0 8 15 A 7 7 0 0 0 15 8 A 7 7 0 0 0 14.9 7 L 14 7 L 9 7 L 9 3.1 L 9 2 L 9 1.078125 A 7 7 0 0 0 8 1 z M 7 3.1 L 7 9 L 9 9 L 12.9 9 A 5 5 0 0 1 8 13 A 5 5 0 0 1 3 8 A 5 5 0 0 1 7 3.1 z "
     />
</svg>
